salty/data/screw.svg

<?xml version="1.0" encoding="UTF-8" standalone="no"?>
<svg
   xmlns:dc="http://purl.org/dc/elements/1.1/"
   xmlns:cc="http://creativecommons.org/ns#"
   xmlns:rdf="http://www.w3.org/1999/02/22-rdf-syntax-ns#"
   xmlns:svg="http://www.w3.org/2000/svg"
   xmlns="http://www.w3.org/2000/svg"
   xmlns:xlink="http://www.w3.org/1999/xlink"
   xmlns:sodipodi="http://sodipodi.sourceforge.net/DTD/sodipodi-0.dtd"
   xmlns:inkscape="http://www.inkscape.org/namespaces/inkscape"
   version="1.1"
   width="24"
   height="24"
   viewBox="0 0 24 24"
   id="svg4"
   sodipodi:docname="screw.svg"
   inkscape:version="0.92.4 (5da689c313, 2019-01-14)">
  <metadata
     id="metadata10">
    <rdf:RDF>
      <cc:Work
         rdf:about="">
        <dc:format>image/svg+xml</dc:format>
        <dc:type
           rdf:resource="http://purl.org/dc/dcmitype/StillImage" />
        <dc:title></dc:title>
      </cc:Work>
    </rdf:RDF>
  </metadata>
  <defs
     id="defs8">
    <linearGradient
       inkscape:collect="always"
       id="linearGradient835">
      <stop
         style="stop-color:#deded6;stop-opacity:1"
         offset="0"
         id="stop831" />
      <stop
         style="stop-color:#acb7b7;stop-opacity:1"
         offset="1"
         id="stop833" />
    </linearGradient>
    <linearGradient
       inkscape:collect="always"
       xlink:href="#linearGradient835"
       id="linearGradient837"
       x1="9.5791512"
       y1="12"
       x2="14.505876"
       y2="12"
       gradientUnits="userSpaceOnUse" />
  </defs>
  <sodipodi:namedview
     pagecolor="#ffffff"
     bordercolor="#666666"
     borderopacity="1"
     objecttolerance="10"
     gridtolerance="10"
     guidetolerance="10"
     inkscape:pageopacity="0"
     inkscape:pageshadow="2"
     inkscape:window-width="640"
     inkscape:window-height="480"
     id="namedview6"
     showgrid="true"
     inkscape:zoom="24.948796"
     inkscape:cx="10.747203"
     inkscape:cy="16.387513"
     inkscape:current-layer="layer1">
    <inkscape:grid
       type="xygrid"
       id="grid819" />
  </sodipodi:namedview>
  <g
     inkscape:groupmode="layer"
     id="layer1"
     inkscape:label="Layer 1">
    <path
       style="opacity:1;vector-effect:none;fill:#696969;fill-opacity:1;fill-rule:nonzero;stroke:#696969;stroke-width:0.5;stroke-linecap:butt;stroke-linejoin:round;stroke-miterlimit:4;stroke-dasharray:none;stroke-dashoffset:0;stroke-opacity:1;paint-order:stroke fill markers"
       d="M 7,3 V 3.3 L 10,6 h 4 L 17,3.3 V 3 Z m 7.5,4.4003906 -5,3.2988284 v 1 L 14.5,8.5 Z m 0,4.0000004 -5,3.298828 v 1 L 14.5,12.5 Z m 0,4 -5,3.298828 v 1 L 14.5,16.5 Z"
       id="path822"
       inkscape:connector-curvature="0"
       sodipodi:nodetypes="cccccccccccccccccccccc" />
    <path
       style="fill:url(#linearGradient837);fill-opacity:1;stroke:#696969;stroke-opacity:1;stroke-width:0.5;stroke-miterlimit:4;stroke-dasharray:none;paint-order:stroke fill markers;stroke-linejoin:round"
       d="M 8 2 C 8 2 7 2 7 3 L 10 5 L 14 5 L 17 3 C 17 3 17 2 16 2 L 8 2 z M 10.5 6 L 10.5 9 L 9.5 9.6992188 L 9.5 10.699219 L 14.5 7.4003906 L 14.5 6.3007812 L 13.5 7 L 13.5 6 L 10.5 6 z M 13.5 9 L 10.5 11 L 10.5 13 L 9.5 13.699219 L 9.5 14.699219 L 14.5 11.400391 L 14.5 10.300781 L 13.5 11 L 13.5 9 z M 13.5 13 L 10.5 15 L 10.5 17 L 9.5 17.699219 L 9.5 18.699219 L 14.5 15.400391 L 14.5 14.300781 L 13.5 15 L 13.5 13 z M 13.5 17 L 10.5 19 L 12 22 L 13.5 19 L 13.5 17 z "
       id="path2" />
  </g>
</svg>

<svg xmlns="http://www.w3.org/2000/svg" width="24" height="24"><defs><linearGradient id="A" x1="9.579" y1="12" x2="14.506" y2="12" gradientUnits="userSpaceOnUse"><stop offset="0" stop-color="#deded6"/><stop offset="1" stop-color="#acb7b7"/></linearGradient></defs><g stroke="#696969" stroke-width=".5" stroke-linejoin="round"><path d="M7 3v.3L10 6h4l3-2.7V3zm7.5 4.4l-5 3.3v1l5-3.2zm0 4l-5 3.3v1l5-3.2zm0 4l-5 3.3v1l5-3.2z" fill="#696969" paint-order="stroke fill markers"/><path d="M8 2S7 2 7 3l3 2h4l3-2s0-1-1-1H8zm2.5 4v3l-1 .7v1l5-3.3V6.3l-1 .7V6h-3zm3 3l-3 2v2l-1 .7v1l5-3.3v-1.1l-1 .7V9zm0 4l-3 2v2l-1 .7v1l5-3.3v-1.1l-1 .7v-2zm0 4l-3 2 1.5 3 1.5-3v-2z" fill="url(#A)" paint-order="stroke fill markers"/></g></svg>
